X:1
T:Me lhme rukist likama
T:trad.
L:1/8
M:3/4
I:linebreak $
K:C
G, | E>D C2 C2 | E>D C3 C | DD G2 D2 | G2 G2 z F | EE E2 C2 | A,A, F3 A | GG G2 B,2 | D2 C2 z2 |$ 
ED C2 CC | ED C2 CC | DD G2 DD | G2 G2 z2 | EE E2 CC | A,A, F2 FA | GG G2 B,2 | D2 C2 z |] 



